!!!SOCIAL_FUNCTION:	cremation legend songs
!!!PDT:	1932
!!!OTL: No_14_Song_Concerning_the_Humming_Bird.krn
!!!REG: Southwest
!!!LANG: Non-Tone
!!!LING_GROUP: Yuman-Cochimi
**kern	**kern
*staff2	*staff1
=1-	=1-
*clefF4	*clefF4
*k[b-e-]	*k[b-e-]
*M3/4	*M3/4
2r	4r
.	8.r
.	16G\
8GG/	12G\L
.	12G\
8r	.
.	12G\J
=2	=2
8GG/	4G\
8r	.
4r	4r
8GG/	8.G\L
8r	.
.	16G\Jk
=3	=3
8GG/	4G\
8r	.
4r	8.r
.	16G\
8GG/	12G\L
.	12G\
8r	.
.	12G\J
=4	=4
8GG/	4G\
8r	.
4r	4r
8GG/	8.G\L
8r	.
.	16G\Jk
=5||	=5||
*M2/4	*M2/4
8GG/	4G\
8r	.
4r	8r
.	16r
.	16G\
=6	=6
8GG/	8.G\L
8r	.
.	16G\Jk
4r	4G\
=7	=7
8GG/	8.G\L
8r	.
.	16G\Jk
4r	4G\
=8	=8
8GG/	4G\
8r	.
4r	4r
=9||	=9||
*M3/4	*M3/4
8GG/	8.G\L
8r	.
.	16G\Jk
4r	4G\
8GG/	8G\
8r	8r
=10||	=10||
*M2/4	*M2/4
4r	4G\
8GG/	12G\L
.	12G\
8r	.
.	12G\J
=11||	=11||
*M3/4	*M3/4
8GG/	4G\
8r	.
4r	8r
.	16r
.	16G\
8GG/	8G\
8r	8r
=12	=12
8GG/	4G\
8r	.
4r	8r
.	16r
.	16G\
8GG/	12G\L
.	12G\
8r	.
.	12G\J
=13	=13
8GG/	4G\
8r	.
4r	8r
.	8G\
8GG/	8G\L
8r	8G\J
=14||	=14||
*M2/4	*M2/4
8GG/	4G\
8r	.
4r	8r
.	8G\
=15	=15
8GG/	4G\
8r	.
8GG/	8B-\L
8r	8A\J
=16	=16
8GG/	8A\L
8r	8B-\J
4r	8r
.	8A\
=17||	=17||
*M3/4	*M3/4
4r	8B-\L
.	8c\J
8GG/	8B-\L
8r	8A\J
8GG/	8G\L
8r	8G\J
=18||	=18||
*M3/8	*M3/8
8r	8A\L
8r	8G\
8r	8G\J
=19	=19
8GG/	8A\L
8r	8B-\
8r	8B-\J
=20||	=20||
*M2/4	*M2/4
4r	8A\L
.	8G\J
8GG/	8A\L
8r	8G\J
=21||	=21||
*M3/4	*M3/4
8GG/	8E-\L
8r	8G\J
4r	8r
.	16r
.	16G\
8GG/	12G\L
.	12G\
8r	.
.	12G\J
=22	=22
8GG/	4G\
8r	.
4r	4r
8GG/	8G\L
8r	8A\J
=23	=23
8GG/	4G\
8r	.
4r	8r
.	8G\
8GG/	12G\L
.	12G\
8r	.
.	12G\J
=24	=24
8GG/	4G\
8r	.
4r	4r
8GG/	8G\L
8r	8G\J
=25||	=25||
*M3/8	*M3/8
8GG/	8G\L
8r	16G\Jk
.	16r
8r	8E-\
=26||	=26||
*M2/4	*M2/4
8GG/	8.G\L
8r	.
.	16G\Jk
4r	4G\
=27	=27
8GG/	8.G\L
8r	.
.	16G\Jk
4r	4G\
=28	=28
8GG/	4G\
8r	.
4r	4r
=29||	=29||
*M3/4	*M3/4
8GG/	8.G\L
8r	.
.	16G\Jk
4r	4G\
8GG/	8G\
8r	8r
=30||	=30||
*M2/4	*M2/4
4r	4G\
8GG/	12G\L
.	12G\
8r	.
.	12G\J
=31||	=31||
*M3/4	*M3/4
8GG/	4G\
8r	.
4r	8r
.	16r
.	16G\
8GG/	8G\
8r	8r
=32	=32
8GG/	4G\
8r	.
4r	8r
.	16r
.	16G\
8GG/	12G\L
.	12G\
8r	.
.	12G\J
=33	=33
8GG/	4G\
8r	.
4r	8r
.	8G\
8GG/	8G\L
8r	8G\J
=34	=34
8GG/	4G\
8r	.
4r	2r
4r	.
==	==
*-	*-
